X:1
T:Aldrig nnsin
C:Trad
R:Polska
Z:Patrik Mnsson, 2008-10-03
O:Skne
M:3/4
L:1/8
K:D
|: D>F A2 d2 | (f>d) (dA) aa | B>B G3 B | (BA) (AG) FF :|
|: D>D E>E F>F | G>G (3FGF E2 :||: A2 B>c dB | A>G F>E D2 :|
